!! 00000] TT[00
!!!OTL: Daxi chuyou xibian sha
!!!ARE: Asia, China Fujian, Zhangzhou
!! Ethnic Group: Han
!! II, 606
!!!SCT: C1171
!!!YEM: Copyright 1995, estate of Helmut Schaffrath.
**kern
*ICvox
*Ivox
*M2/4
*k[f#c#]
*D:
{8ee
8ff#
8ee
8dd
=1
8ee
8ff#
[4ee
=2
8ee]
8ff#}
{8dd
8ee
=3
4ff#
8ee
8dd
=4
2b}
=5
{8ee
4.ee
=6
8a
8b
8a
8f#
=7
2e}
=8
{4ee
4ee
=9
8b
8ee
8cc#
8b
=10
[2a
=11
4a]
4r}
=12
{8ee
8ff#
8ee
8dd
=13
8ee
8ff#
[4ee
=14
8ee]
8ff#}
{8dd
8ee
=15
4ff#
8ee
8dd
=16
2b}
=17
{8ee
4.ee
=18
8a
8b
8a
8f#
=19
2e}
=20
{4ee
4ee
=21
8b
8ee
8cc#
8b
=22
[2a
=23
4a]
4r}
==
!!!ONB: ESAC (Essen Associative Code) Database: CHINA_060
!!!AMT: simple duple
!!!AIN: vox
!!!EED: Helmut Schaffrath
!!!EEV: 1.0
*-
!!!ONB: Tied note syntax fixed by Craig Sapp, 2004/05/03/
